packages/kaspersky-hexa-ui-icons/src/iconsSVGs/16/Edit.svg

<svg width="16" height="16" viewBox="0 0 16 16" fill="none" xmlns="http://www.w3.org/2000/svg">
<path fill-rule="evenodd" clip-rule="evenodd" d="M12.6734 1.72572C12.1072 1.15946 11.1891 1.15946 10.6228 1.72572L2.12998 10.2186C1.90664 10.4419 1.75209 10.7247 1.6847 11.0332L1.04163 13.9779C0.909466 14.5831 1.44823 15.1218 2.05341 14.9897L4.99805 14.3466C5.30663 14.2792 5.58939 14.1247 5.81274 13.9013L14.3056 5.40847C14.8718 4.84221 14.8718 3.92412 14.3056 3.35786L12.6734 1.72572ZM11.5421 2.64496C11.6006 2.58638 11.6956 2.58638 11.7542 2.64496L13.3863 4.2771C13.4449 4.33568 13.4449 4.43065 13.3863 4.48923L12.6641 5.21144L10.8199 3.36717L11.5421 2.64496ZM9.90062 4.28641L3.04922 11.1378C3.00185 11.1852 2.96906 11.2452 2.95477 11.3106L2.46136 13.5699L4.72069 13.0765C4.78614 13.0622 4.84612 13.0295 4.8935 12.9821L11.7449 6.13068L9.90062 4.28641Z" fill="black"/>
</svg>

<svg xmlns="http://www.w3.org/2000/svg" width="16" height="16" fill="none" viewBox="0 0 16 16"><path fill="#000" fill-rule="evenodd" d="M12.6734 1.7257c-.5662-.5662-1.4843-.5662-2.0506 0L2.13 10.2186a1.65 1.65 0 0 0-.4453.8146l-.643 2.9447c-.1322.6052.4065 1.1439 1.0117 1.0118l2.9447-.6431a1.65 1.65 0 0 0 .8146-.4453l8.4929-8.4928c.5662-.5663.5662-1.4844 0-2.0506zm-1.1313.9193a.15.15 0 0 1 .2121 0l1.6321 1.6321a.15.15 0 0 1 0 .2121l-.7222.7222-1.8442-1.8442zM9.9006 4.2864l-6.8514 6.8514a.35.35 0 0 0-.0944.1728l-.4934 2.2593 2.2593-.4934a.35.35 0 0 0 .1728-.0944l6.8514-6.8514z"/></svg>
